X:1
T:House of Bellabeg, The
T:House of Bellabeg, The
T:Alexander Walker
C:Alexander Walker
L:1/8
M:4/4
K:C
V:1 treble 
V:1
 F | E>FG>c A<c G2 | E<GG<c d>cd<e | E>FG<c A<c G>a | g>ag>e{e} (d2 c) :| a | g<ce>c g<c e2 | %7
 g<ce>d c<AA>^G | A>c G>e F>d E>c | D<FE>D C<A,A,>a | g<ce>c g<c e2 | g<ce>g a<dd>f | %12
 e>gd>e c>dA>c | G>cE<c{E} D2 C || %14

